icon-svg/fortinet.svg

<svg xmlns="http://www.w3.org/2000/svg" viewBox="0 0 24 24"><path fill="#44739e" d="M9.214 13.173h5.556v3.72H9.214ZM2.005 7.898h5.663v3.722H2.005Zm14.305 8.994h3.499a3.81 3.81 0 0 0 2.177-3.256v-.464H16.31ZM9.214 2.628h5.556V6.35H9.214Zm7.101 5.275h5.68v3.722h-5.68Zm5.675-1.972a3.72 3.72 0 0 0-2.324-3.299h-3.355V6.35h5.679Zm-14.327-3.3H4.324A3.72 3.72 0 0 0 2 5.937v.416h5.663ZM2 13.172v.46a3.81 3.81 0 0 0 2.179 3.26h3.484v-3.721Zm3.915 7.598h.9v.602h-.9Zm-1.168-.855h.917v.603h-.917Zm2.316 1.457h.567a.62.62 0 0 0 .353-.528v-.075h-.92Zm-1.148-2.31h.9v.603h-.9Zm1.149.854h.92v.603h-.92Zm.919-.319a.6.6 0 0 0-.377-.535h-.543v.6h.92Zm-2.319-.535h-.541a.6.6 0 0 0-.376.536v.067h.917Zm-.917 1.707v.075a.62.62 0 0 0 .352.528h.565v-.6Zm13.232-.308h1.163v-.486h-1.163v-.384h1.675v-.503h-2.226v2.261l-.002.001h2.238v-.503h-1.685Zm-1.148-1.18a.8.8 0 0 0-.529-.19h-1.784v2.264h.554v-1.764h1.245a.18.18 0 0 1 .134.059c.052.053.045.206.045.206v1.5h.552v-1.465a.8.8 0 0 0-.217-.61m3.096-.194v.503h.521v1.759H21V19.59h1v-.503Zm-6.38.143v2.12h.552v-2.262h-.552Zm-2.345.36h.521v1.759h.553V19.59h1v-.503h-2.074Zm-9.196-.503v2.262h.553v-.889h1.672v-.486H2.559v-.384h1.944v-.504zm8.108.004H8.39v2.261h.552v-.889h1.137a.6.6 0 0 1 .219.019.11.11 0 0 1 .057.1v.772h.536v-.648a.4.4 0 0 0-.077-.291.2.2 0 0 0-.065-.049l-.02-.01a.54.54 0 0 0 .187-.4v-.165a.7.7 0 0 0-.159-.52.88.88 0 0 0-.643-.18m.249.767a.12.12 0 0 1-.056.1.7.7 0 0 1-.248.02H8.942v-.387h1.076a.8.8 0 0 1 .289.019.12.12 0 0 1 .057.1Z"/></svg>

<?xml version="1.0" encoding="UTF-8"?>
<svg width="24px" fill="#44739e" height="24px" viewBox="0 0 24 24" version="1.1" xmlns="http://www.w3.org/2000/svg" xmlns:xlink="http://www.w3.org/1999/xlink">
            <path d="m 9.21,13.18 h 5.558 v 3.721 H 9.21 Z M 1.999,7.9029999 H 7.6639999 V 11.626 H 1.999 Z M 16.308,16.9 h 3.5 a 3.813,3.813 0 0 0 2.178,-3.257 V 13.179 H 16.308 Z M 9.21,2.632 h 5.558 V 6.355 H 9.21 Z m 7.103,5.276 h 5.682 v 3.723 H 16.313 Z M 21.99,5.936 a 3.72,3.72 0 0 0 -2.325,-3.3 H 16.309 V 6.355 H 21.99 Z M 7.659,2.635 H 4.319 A 3.724,3.724 0 0 0 1.994,5.942 V 6.358 H 7.659 Z M 1.994,13.179 v 0.46 A 3.81,3.81 0 0 0 4.174,16.9 H 7.659 V 13.178 H 1.994 Z m 3.9159998,7.599999 h 0.9 v 0.602 h -0.9 z M 4.7420001,19.924 h 0.917 v 0.603 h -0.917 z M 7.059,21.381 H 7.626 A 0.618,0.618 0 0 0 7.979,20.853 V 20.778 H 7.059 Z M 5.9099998,19.070999 h 0.9 v 0.603 h -0.9 z m 1.1500001,0.854 H 7.98 v 0.603 H 7.0599999 Z M 7.979,19.606 A 0.6,0.6 0 0 0 7.602,19.071 H 7.059 v 0.6 h 0.92 z M 5.659,19.071 H 5.118 a 0.6,0.6 0 0 0 -0.376,0.536 v 0.067 h 0.917 z m -0.917,1.707 v 0.075 a 0.616,0.616 0 0 0 0.352,0.528 h 0.565 v -0.6 z M 17.978,20.47 h 1.163 V 19.984 H 17.978 V 19.6 h 1.675 v -0.503 h -2.226 v 0.142 2.119 l -0.002,0.001 h 2.238 V 20.856 H 17.978 Z M 16.829,19.29 A 0.8,0.8 0 0 0 16.3,19.1 h -1.784 v 2.264 H 15.07 V 19.6 h 1.245 a 0.176,0.176 0 0 1 0.134,0.059 c 0.052,0.053 0.045,0.206 0.045,0.206 v 1.5 h 0.553 V 19.9 a 0.8,0.8 0 0 0 -0.218,-0.61 z m 3.097,-0.194 v 0.503 h 0.522 v 1.759 0 H 21 v -1.759 h 1 v -0.503 z m -6.382,0.143 v 2.119 0.001 h 0.553 v -2.262 h -0.553 z m -2.345,0.36 h 0.521 v 1.759 h 10e-4 0.552 v -1.759 h 1 V 19.096 H 11.199 Z M 2,19.096 v 0.142 2.12 H 2.553 V 20.469 H 4.226 V 19.983 H 2.553 V 19.599 H 4.498 V 19.095 H 2 Z M 10.11,19.1 H 8.386 v 2.261 h 0.552 v -0.889 h 1.137 a 0.626,0.626 0 0 1 0.219,0.019 0.113,0.113 0 0 1 0.058,0.1 v 0.772 h 0.536 v -0.648 a 0.408,0.408 0 0 0 -0.077,-0.291 0.2,0.2 0 0 0 -0.065,-0.049 l -0.02,-0.01 a 0.539,0.539 0 0 0 0.187,-0.4 V 19.8 A 0.694,0.694 0 0 0 10.754,19.28 0.877,0.877 0 0 0 10.11,19.1 Z m 0.25,0.767 a 0.117,0.117 0 0 1 -0.057,0.1 0.694,0.694 0 0 1 -0.248,0.02 H 8.938 V 19.6 h 1.076 a 0.774,0.774 0 0 1 0.289,0.019 0.117,0.117 0 0 1 0.058,0.1 z"/>

</svg>
